Numix-Light-GalliumOS/scalable/actions/view-list-images-symbolic.svg

<svg xmlns="http://www.w3.org/2000/svg" viewBox="0 0 16 16">
<path style="fill:#353535" d="M 6,2 C 5.446,2 5,2.446 5,3 L 5,4 1,4 C 0.446,4 0,4.446 0,5 l 0,8 c 0,0.554 0.446,1 1,1 l 14,0 c 0.554,0 1,-0.446 1,-1 L 16,5 C 16,4.446 15.554,4 15,4 L 11,4 11,3 C 11,2.446 10.554,2 10,2 L 6,2 z m 2,4 c 1.656854,0 3,1.3431457 3,3 0,1.656854 -1.343146,3 -3,3 C 6.343146,12 5,10.656854 5,9 5,7.3431457 6.343146,6 8,6 z M 8,8 C 7.447715,8 7,8.4477153 7,9 7,9.5522847 7.447715,10 8,10 8.552285,10 9,9.5522847 9,9 9,8.4477153 8.552285,8 8,8 z"/>
</svg>

<svg xmlns="http://www.w3.org/2000/svg" viewBox="0 0 16 16">
 <path d="m 6 2 c -0.554 0 -1 0.446 -1 1 l 0 1 -4 0 c -0.554 0 -1 0.446 -1 1 l 0 8 c 0 0.554 0.446 1 1 1 l 14 0 c 0.554 0 1 -0.446 1 -1 l 0 -8 c 0 -0.554 -0.446 -1 -1 -1 l -4 0 0 -1 c 0 -0.554 -0.446 -1 -1 -1 l -4 0 z m 2 4 c 1.657 0 3 1.343 3 3 0 1.657 -1.343 3 -3 3 c -1.657 0 -3 -1.343 -3 -3 0 -1.657 1.343 -3 3 -3 z m 0 2 c -0.552 0 -1 0.448 -1 1 0 0.552 0.448 1 1 1 0.552 0 1 -0.448 1 -1 0 -0.552 -0.448 -1 -1 -1 z" style="fill:#353535"/>
</svg>
